actual/images/googleplaybadge.svg

<?xml version="1.0" encoding="UTF-8" standalone="no"?>
<!-- Generator: Adobe Illustrator 16.0.0, SVG Export Plug-In . SVG Version: 6.00 Build 0)  -->
<!DOCTYPE svg  PUBLIC '-//W3C//DTD SVG 1.1//EN'  'http://www.w3.org/Graphics/SVG/1.1/DTD/svg11.dtd'>
<svg id="Layer_1" xmlns="http://www.w3.org/2000/svg" xml:space="preserve" height="103.05px" viewBox="0 0 231.579 103.051" width="231.58px" version="1.1" y="0px" x="0px" xmlns:xlink="http://www.w3.org/1999/xlink" enable-background="new 0 0 231.579 103.051">
	<rect fill-opacity="0" height="80.413" width="207.73" y="13.45" x="9.088" fill="#fff"/>
		<path d="m196.72 80.459h-167.53c-3.686 0-6.701-3.016-6.701-6.699v-40.207c0-3.685 3.016-6.701 6.701-6.701h167.53c3.687 0 6.703 3.016 6.703 6.701v40.207c0 3.685-3.02 6.699-6.7 6.699z"/>
			<path d="m196.72 27.924c3.104 0 5.629 2.525 5.629 5.629v40.207c0 3.104-2.523 5.629-5.629 5.629h-167.53c-3.104 0-5.628-2.525-5.628-5.629v-40.207c0-3.104 2.524-5.629 5.628-5.629h167.53m0-1.072h-167.53c-3.686 0-6.701 3.016-6.701 6.701v40.207c0 3.685 3.016 6.699 6.701 6.699h167.53c3.687 0 6.703-3.016 6.703-6.699v-40.207c0-3.685-3.02-6.701-6.7-6.701z" fill="#A6A6A6"/>
	<g stroke="#fff" stroke-width=".2" stroke-miterlimit="10" fill="#fff">
		<path d="m86.041 40.58c0 1.123-0.333 2.017-0.998 2.684-0.756 0.793-1.743 1.19-2.955 1.19-1.16 0-2.146-0.402-2.958-1.207-0.813-0.805-1.219-1.803-1.219-2.993 0-1.191 0.406-2.188 1.219-2.993 0.812-0.805 1.799-1.207 2.958-1.207 0.576 0 1.128 0.112 1.651 0.337 0.524 0.225 0.942 0.524 1.256 0.898l-0.707 0.707c-0.531-0.636-1.264-0.954-2.201-0.954-0.846 0-1.579 0.297-2.197 0.892-0.618 0.596-0.926 1.369-0.926 2.319 0 0.951 0.309 1.724 0.926 2.319 0.618 0.595 1.351 0.893 2.197 0.893 0.898 0 1.646-0.299 2.246-0.898 0.39-0.39 0.615-0.933 0.675-1.629h-2.921v-0.966h3.897c0.038 0.211 0.057 0.413 0.057 0.608z"/>
		<path d="m92.218 37.221h-3.662v2.55h3.303v0.966h-3.303v2.549h3.662v0.988h-4.693v-8.042h4.693v0.989z"/>
		<path d="m96.577 44.274h-1.034v-7.053h-2.246v-0.988h5.526v0.988h-2.246v7.053z"/>
		<path d="m102.82 44.274v-8.042h1.034v8.042h-1.03z"/>
		<path d="m108.44 44.274h-1.034v-7.053h-2.246v-0.988h5.526v0.988h-2.246v7.053z"/>
		<path d="m121.14 43.235c-0.79 0.813-1.771 1.219-2.948 1.219-1.176 0-2.158-0.406-2.947-1.219-0.791-0.812-1.185-1.806-1.185-2.981s0.394-2.169 1.185-2.981c0.789-0.813 1.771-1.219 2.947-1.219 1.168 0 2.147 0.408 2.943 1.224 0.793 0.816 1.188 1.808 1.188 2.976 0.01 1.176-0.39 2.169-1.18 2.981zm-5.13-0.673c0.596 0.603 1.323 0.904 2.185 0.904s1.591-0.301 2.185-0.904c0.596-0.603 0.895-1.373 0.895-2.308s-0.299-1.705-0.895-2.308c-0.594-0.603-1.322-0.903-2.185-0.903s-1.589 0.301-2.185 0.903c-0.595 0.603-0.893 1.373-0.893 2.308s0.29 1.705 0.88 2.308z"/>
		<path d="m123.78 44.274v-8.042h1.258l3.908 6.256h0.044l-0.044-1.55v-4.706h1.033v8.042h-1.078l-4.089-6.558h-0.045l0.045 1.549v5.009h-1.02z"/>
	</g>
	<path d="m113.81 56.004c-3.152 0-5.72 2.396-5.72 5.699 0 3.281 2.568 5.699 5.72 5.699s5.723-2.418 5.723-5.699c0-3.302-2.57-5.699-5.72-5.699zm0 9.155c-1.726 0-3.216-1.426-3.216-3.453 0-2.053 1.49-3.455 3.216-3.455 1.728 0 3.218 1.402 3.218 3.455-0.01 2.027-1.5 3.453-3.22 3.453zm-12.49-9.155c-3.151 0-5.722 2.396-5.722 5.699 0 3.281 2.571 5.699 5.722 5.699 3.153 0 5.722-2.418 5.722-5.699 0.01-3.302-2.56-5.699-5.72-5.699zm0 9.155c-1.728 0-3.217-1.426-3.217-3.453 0-2.053 1.49-3.455 3.217-3.455s3.217 1.402 3.217 3.455c0 2.027-1.49 3.453-3.22 3.453zm-14.842-7.407v2.418h5.786c-0.173 1.361-0.627 2.354-1.318 3.045-0.841 0.842-2.159 1.771-4.468 1.771-3.563 0-6.348-2.87-6.348-6.435 0-3.563 2.785-6.436 6.348-6.436 1.921 0 3.324 0.756 4.361 1.729l1.707-1.706c-1.448-1.381-3.369-2.439-6.068-2.439-4.88 0-8.984 3.973-8.984 8.852 0 4.88 4.104 8.853 8.984 8.853 2.633 0 4.62-0.864 6.175-2.483 1.597-1.598 2.094-3.842 2.094-5.655 0-0.562-0.043-1.08-0.13-1.513h-8.139v-0.001zm60.722 1.879c-0.475-1.273-1.922-3.627-4.879-3.627-2.938 0-5.377 2.311-5.377 5.699 0 3.194 2.418 5.699 5.656 5.699 2.613 0 4.125-1.597 4.752-2.525l-1.943-1.295c-0.647 0.949-1.533 1.576-2.809 1.576-1.273 0-2.18-0.584-2.764-1.729l7.623-3.152-0.26-0.646zm-7.77 1.901c-0.063-2.203 1.707-3.324 2.98-3.324 0.993 0 1.836 0.496 2.116 1.207l-5.1 2.117zm-6.2 5.527h2.504v-16.755h-2.504v16.755zm-4.1-9.781h-0.086c-0.562-0.67-1.642-1.273-3-1.273-2.852 0-5.465 2.504-5.465 5.722 0 3.194 2.613 5.679 5.465 5.679 1.358 0 2.438-0.604 3-1.295h0.086v0.82c0 2.181-1.166 3.347-3.043 3.347-1.533 0-2.483-1.103-2.873-2.028l-2.18 0.905c0.625 1.513 2.287 3.368 5.053 3.368 2.937 0 5.418-1.729 5.418-5.938v-10.236h-2.375v0.929zm-2.87 7.881c-1.729 0-3.174-1.447-3.174-3.434 0-2.008 1.445-3.477 3.174-3.477 1.705 0 3.045 1.469 3.045 3.477 0 1.986-1.34 3.434-3.04 3.434zm32.67-14.855h-5.992v16.755h2.5v-6.348h3.492c2.771 0 5.496-2.008 5.496-5.205 0-3.195-2.73-5.202-5.5-5.202zm0.07 8.075h-3.557v-5.744h3.557c1.869 0 2.933 1.548 2.933 2.871 0 1.299-1.06 2.873-2.93 2.873zm15.45-2.406c-1.811 0-3.686 0.798-4.461 2.564l2.221 0.926c0.474-0.926 1.357-1.228 2.285-1.228 1.291 0 2.607 0.774 2.629 2.154v0.173c-0.453-0.259-1.424-0.646-2.608-0.646-2.394 0-4.828 1.314-4.828 3.772 0 2.242 1.962 3.687 4.16 3.687 1.681 0 2.608-0.754 3.19-1.64h0.086v1.296h2.414v-6.426c0-2.974-2.22-4.632-5.09-4.632zm-0.3 9.182c-0.819 0-1.962-0.408-1.962-1.422 0-1.293 1.424-1.789 2.652-1.789 1.098 0 1.615 0.236 2.283 0.561-0.19 1.551-1.52 2.65-2.97 2.65zm14.18-8.817l-2.867 7.265h-0.086l-2.975-7.265h-2.695l4.463 10.152-2.545 5.647h2.608l6.876-15.8h-2.78v0.001zm-22.52 10.721h2.501v-16.755h-2.501v16.755z" fill="#fff"/>
			<linearGradient id="SVGID_1_" y2="531.54" gradientUnits="userSpaceOnUse" x2="-54.783" gradientTransform="translate(84 -470.53)" y1="509.05" x1="-32.292">
			<stop stop-color="#00A0FF" offset="0"/>
			<stop stop-color="#00A1FF" offset=".0066"/>
			<stop stop-color="#00BEFF" offset=".2601"/>
			<stop stop-color="#00D2FF" offset=".5122"/>
			<stop stop-color="#00DFFF" offset=".7604"/>
			<stop stop-color="#00E3FF" offset="1"/>
		</linearGradient>
		<path d="m36.477 36.955c-0.391 0.413-0.621 1.053-0.621 1.883v29.641c0 0.83 0.23 1.471 0.621 1.882l0.099 0.099 16.604-16.605v-0.391l-16.605-16.607-0.098 0.098z" fill="url(#SVGID_1_)"/>
			<linearGradient id="SVGID_2_" y2="524.19" gradientUnits="userSpaceOnUse" x2="-48.594" gradientTransform="translate(84 -470.53)" y1="524.19" x1="-16.165">
			<stop stop-color="#FFE000" offset="0"/>
			<stop stop-color="#FFBD00" offset=".4087"/>
			<stop stop-color="#FFA500" offset=".7754"/>
			<stop stop-color="#FF9C00" offset="1"/>
		</linearGradient>
		<path d="m58.713 59.39l-5.534-5.537v-0.391l5.537-5.536 0.125 0.071 6.557 3.726c1.873 1.064 1.873 2.805 0 3.869l-6.558 3.728-0.127 0.07z" fill="url(#SVGID_2_)"/>
			<linearGradient id="SVGID_3_" y2="557.76" gradientUnits="userSpaceOnUse" x2="-58.736" gradientTransform="translate(84 -470.53)" y1="527.26" x1="-28.236">
			<stop stop-color="#FF3A44" offset="0"/>
			<stop stop-color="#C31162" offset="1"/>
		</linearGradient>
		<path d="m58.84 59.319l-5.661-5.66-16.702 16.701c0.618 0.654 1.636 0.734 2.785 0.083l19.578-11.124" fill="url(#SVGID_3_)"/>
			<linearGradient id="SVGID_4_" y2="511.24" gradientUnits="userSpaceOnUse" x2="-38.109" gradientTransform="translate(84 -470.53)" y1="497.62" x1="-51.729">
			<stop stop-color="#32A071" offset="0"/>
			<stop stop-color="#2DA771" offset=".0685"/>
			<stop stop-color="#15CF74" offset=".4762"/>
			<stop stop-color="#06E775" offset=".8009"/>
			<stop stop-color="#00F076" offset="1"/>
		</linearGradient>
		<path d="m58.84 47.997l-19.579-11.125c-1.149-0.652-2.167-0.571-2.785 0.083l16.702 16.704 5.662-5.662z" fill="url(#SVGID_4_)"/>
			<path opacity=".2" enable-background="new    " d="m58.715 59.194l-19.454 11.055c-1.089 0.617-2.062 0.576-2.686 0.015l-0.099 0.1 0.099 0.097c0.625 0.563 1.597 0.604 2.686-0.016l19.579-11.126-0.125-0.125z"/>
			<path opacity=".12" enable-background="new    " d="m36.477 70.167c-0.391-0.414-0.621-1.054-0.621-1.883v0.194c0 0.83 0.23 1.472 0.621 1.884l0.099-0.1-0.099-0.095z"/>
		<path opacity=".12" enable-background="new    " d="m65.397 55.397l-6.682 3.797 0.125 0.125 6.557-3.727c0.936-0.531 1.404-1.233 1.404-1.934-0.078 0.634-0.555 1.257-1.404 1.739z"/>
		<path opacity=".25" enable-background="new    " d="m39.261 37.068l26.136 14.85c0.849 0.483 1.326 1.104 1.404 1.741 0.001-0.701-0.467-1.404-1.404-1.936l-26.136-14.85c-1.874-1.064-3.406-0.18-3.406 1.965v0.195c0-2.144 1.532-3.029 3.406-1.965z" fill="#fff"/>
</svg>

<?xml version="1.0" encoding="utf-8"?>
<!-- Generator: Adobe Illustrator 16.0.0, SVG Export Plug-In . SVG Version: 6.00 Build 0)  -->
<!DOCTYPE svg PUBLIC "-//W3C//DTD SVG 1.1//EN" "http://www.w3.org/Graphics/SVG/1.1/DTD/svg11.dtd">
<svg version="1.1" id="Layer_1" xmlns="http://www.w3.org/2000/svg" xmlns:xlink="http://www.w3.org/1999/xlink" x="0px" y="0px"
	 width="231.579px" height="103.051px" viewBox="0 0 231.579 103.051" enable-background="new 0 0 231.579 103.051"
	 xml:space="preserve">
<g>
	<rect x="9.088" y="13.45" fill="#FFFFFF" fill-opacity="0" width="207.734" height="80.413"/>
	<g>
		<path d="M196.719,80.459H29.191c-3.686,0-6.701-3.016-6.701-6.699V33.553c0-3.685,3.016-6.701,6.701-6.701h167.526
			c3.687,0,6.703,3.016,6.703,6.701V73.76C203.42,77.445,200.404,80.459,196.719,80.459z"/>
	</g>
	<g>
		<g>
			<path fill="#A6A6A6" d="M196.719,27.924c3.104,0,5.629,2.525,5.629,5.629V73.76c0,3.104-2.523,5.629-5.629,5.629H29.191
				c-3.104,0-5.628-2.525-5.628-5.629V33.553c0-3.104,2.524-5.629,5.628-5.629H196.719 M196.719,26.852H29.191
				c-3.686,0-6.701,3.016-6.701,6.701V73.76c0,3.685,3.016,6.699,6.701,6.699h167.526c3.687,0,6.703-3.016,6.703-6.699V33.553
				C203.42,29.868,200.404,26.852,196.719,26.852L196.719,26.852z"/>
		</g>
	</g>
	<g>
		<path fill="#FFFFFF" stroke="#FFFFFF" stroke-width="0.2" stroke-miterlimit="10" d="M86.041,40.58
			c0,1.123-0.333,2.017-0.998,2.684c-0.756,0.793-1.743,1.19-2.955,1.19c-1.16,0-2.146-0.402-2.958-1.207
			c-0.813-0.805-1.219-1.803-1.219-2.993c0-1.191,0.406-2.188,1.219-2.993c0.812-0.805,1.799-1.207,2.958-1.207
			c0.576,0,1.128,0.112,1.651,0.337c0.524,0.225,0.942,0.524,1.256,0.898l-0.707,0.707c-0.531-0.636-1.264-0.954-2.201-0.954
			c-0.846,0-1.579,0.297-2.197,0.892c-0.618,0.596-0.926,1.369-0.926,2.319c0,0.951,0.309,1.724,0.926,2.319
			c0.618,0.595,1.351,0.893,2.197,0.893c0.898,0,1.646-0.299,2.246-0.898c0.39-0.39,0.615-0.933,0.675-1.629h-2.921v-0.966h3.897
			C86.022,40.183,86.041,40.385,86.041,40.58z"/>
		<path fill="#FFFFFF" stroke="#FFFFFF" stroke-width="0.2" stroke-miterlimit="10" d="M92.218,37.221h-3.662v2.55h3.303v0.966
			h-3.303v2.549h3.662v0.988h-4.693v-8.042h4.693V37.221z"/>
		<path fill="#FFFFFF" stroke="#FFFFFF" stroke-width="0.2" stroke-miterlimit="10" d="M96.577,44.274h-1.034v-7.053h-2.246v-0.988
			h5.526v0.988h-2.246V44.274z"/>
		<path fill="#FFFFFF" stroke="#FFFFFF" stroke-width="0.2" stroke-miterlimit="10" d="M102.82,44.274v-8.042h1.034v8.042H102.82z"
			/>
		<path fill="#FFFFFF" stroke="#FFFFFF" stroke-width="0.2" stroke-miterlimit="10" d="M108.437,44.274h-1.034v-7.053h-2.246v-0.988
			h5.526v0.988h-2.246V44.274z"/>
		<path fill="#FFFFFF" stroke="#FFFFFF" stroke-width="0.2" stroke-miterlimit="10" d="M121.143,43.235
			c-0.79,0.813-1.771,1.219-2.948,1.219c-1.176,0-2.158-0.406-2.947-1.219c-0.791-0.812-1.185-1.806-1.185-2.981
			c0-1.175,0.394-2.169,1.185-2.981c0.789-0.813,1.771-1.219,2.947-1.219c1.168,0,2.147,0.408,2.943,1.224
			c0.793,0.816,1.188,1.808,1.188,2.976C122.327,41.43,121.933,42.423,121.143,43.235z M116.01,42.562
			c0.596,0.603,1.323,0.904,2.185,0.904s1.591-0.301,2.185-0.904c0.596-0.603,0.895-1.373,0.895-2.308s-0.299-1.705-0.895-2.308
			c-0.594-0.603-1.322-0.903-2.185-0.903s-1.589,0.301-2.185,0.903c-0.595,0.603-0.893,1.373-0.893,2.308
			S115.415,41.959,116.01,42.562z"/>
		<path fill="#FFFFFF" stroke="#FFFFFF" stroke-width="0.2" stroke-miterlimit="10" d="M123.778,44.274v-8.042h1.258l3.908,6.256
			h0.044l-0.044-1.55v-4.706h1.033v8.042h-1.078l-4.089-6.558h-0.045l0.045,1.549v5.009H123.778z"/>
	</g>
	<path fill="#FFFFFF" d="M113.807,56.004c-3.152,0-5.72,2.396-5.72,5.699c0,3.281,2.568,5.699,5.72,5.699s5.723-2.418,5.723-5.699
		C119.529,58.401,116.959,56.004,113.807,56.004z M113.807,65.159c-1.726,0-3.216-1.426-3.216-3.453c0-2.053,1.49-3.455,3.216-3.455
		c1.728,0,3.218,1.402,3.218,3.455C117.024,63.733,115.534,65.159,113.807,65.159z M101.325,56.004
		c-3.151,0-5.722,2.396-5.722,5.699c0,3.281,2.571,5.699,5.722,5.699c3.153,0,5.722-2.418,5.722-5.699
		C107.047,58.401,104.478,56.004,101.325,56.004z M101.325,65.159c-1.728,0-3.217-1.426-3.217-3.453c0-2.053,1.49-3.455,3.217-3.455
		c1.727,0,3.217,1.402,3.217,3.455C104.542,63.733,103.053,65.159,101.325,65.159z M86.478,57.752v2.418h5.786
		c-0.173,1.361-0.627,2.354-1.318,3.045c-0.841,0.842-2.159,1.771-4.468,1.771c-3.563,0-6.348-2.87-6.348-6.435
		c0-3.563,2.785-6.436,6.348-6.436c1.921,0,3.324,0.756,4.361,1.729l1.707-1.706c-1.448-1.381-3.369-2.439-6.068-2.439
		c-4.88,0-8.984,3.973-8.984,8.852c0,4.88,4.104,8.853,8.984,8.853c2.633,0,4.62-0.864,6.175-2.483
		c1.597-1.598,2.094-3.842,2.094-5.655c0-0.562-0.043-1.08-0.13-1.513H86.478L86.478,57.752z M147.2,59.631
		c-0.475-1.273-1.922-3.627-4.879-3.627c-2.938,0-5.377,2.311-5.377,5.699c0,3.194,2.418,5.699,5.656,5.699
		c2.613,0,4.125-1.597,4.752-2.525l-1.943-1.295c-0.647,0.949-1.533,1.576-2.809,1.576c-1.273,0-2.18-0.584-2.764-1.729l7.623-3.152
		L147.2,59.631z M139.426,61.532c-0.063-2.203,1.707-3.324,2.98-3.324c0.993,0,1.836,0.496,2.116,1.207L139.426,61.532z
		 M133.231,67.059h2.504V50.304h-2.504V67.059z M129.127,57.278h-0.086c-0.562-0.67-1.642-1.273-3-1.273
		c-2.852,0-5.465,2.504-5.465,5.722c0,3.194,2.613,5.679,5.465,5.679c1.358,0,2.438-0.604,3-1.295h0.086v0.82
		c0,2.181-1.166,3.347-3.043,3.347c-1.533,0-2.483-1.103-2.873-2.028l-2.18,0.905c0.625,1.513,2.287,3.368,5.053,3.368
		c2.937,0,5.418-1.729,5.418-5.938V56.349h-2.375V57.278z M126.256,65.159c-1.729,0-3.174-1.447-3.174-3.434
		c0-2.008,1.445-3.477,3.174-3.477c1.705,0,3.045,1.469,3.045,3.477C129.301,63.711,127.961,65.159,126.256,65.159z M158.933,50.304
		h-5.992v16.755h2.5v-6.348h3.492c2.771,0,5.496-2.008,5.496-5.205C164.429,52.311,161.704,50.304,158.933,50.304z M158.997,58.379
		h-3.557v-5.744h3.557c1.869,0,2.933,1.548,2.933,2.871C161.929,56.805,160.866,58.379,158.997,58.379z M174.452,55.973
		c-1.811,0-3.686,0.798-4.461,2.564l2.221,0.926c0.474-0.926,1.357-1.228,2.285-1.228c1.291,0,2.607,0.774,2.629,2.154v0.173
		c-0.453-0.259-1.424-0.646-2.608-0.646c-2.394,0-4.828,1.314-4.828,3.772c0,2.242,1.962,3.687,4.16,3.687
		c1.681,0,2.608-0.754,3.19-1.64h0.086v1.296h2.414v-6.426C179.54,57.631,177.318,55.973,174.452,55.973z M174.15,65.155
		c-0.819,0-1.962-0.408-1.962-1.422c0-1.293,1.424-1.789,2.652-1.789c1.098,0,1.615,0.236,2.283,0.561
		C176.932,64.056,175.595,65.155,174.15,65.155z M188.334,56.338l-2.867,7.265h-0.086l-2.975-7.265h-2.695l4.463,10.152
		l-2.545,5.647h2.608l6.876-15.8H188.334L188.334,56.338z M165.809,67.059h2.501V50.304h-2.501V67.059z"/>
	<g>
		
			<linearGradient id="SVGID_1_" gradientUnits="userSpaceOnUse" x1="-32.2915" y1="509.0522" x2="-54.7832" y2="531.5439" gradientTransform="matrix(1 0 0 1 84 -470.5264)">
			<stop  offset="0" style="stop-color:#00A0FF"/>
			<stop  offset="0.0066" style="stop-color:#00A1FF"/>
			<stop  offset="0.2601" style="stop-color:#00BEFF"/>
			<stop  offset="0.5122" style="stop-color:#00D2FF"/>
			<stop  offset="0.7604" style="stop-color:#00DFFF"/>
			<stop  offset="1" style="stop-color:#00E3FF"/>
		</linearGradient>
		<path fill="url(#SVGID_1_)" d="M36.477,36.955c-0.391,0.413-0.621,1.053-0.621,1.883v29.641c0,0.83,0.23,1.471,0.621,1.882
			l0.099,0.099L53.18,53.855v-0.196v-0.195L36.575,36.857L36.477,36.955z"/>
		
			<linearGradient id="SVGID_2_" gradientUnits="userSpaceOnUse" x1="-16.165" y1="524.1851" x2="-48.5939" y2="524.1851" gradientTransform="matrix(1 0 0 1 84 -470.5264)">
			<stop  offset="0" style="stop-color:#FFE000"/>
			<stop  offset="0.4087" style="stop-color:#FFBD00"/>
			<stop  offset="0.7754" style="stop-color:#FFA500"/>
			<stop  offset="1" style="stop-color:#FF9C00"/>
		</linearGradient>
		<path fill="url(#SVGID_2_)" d="M58.713,59.39l-5.534-5.537v-0.196v-0.195l5.537-5.536l0.125,0.071l6.557,3.726
			c1.873,1.064,1.873,2.805,0,3.869L58.84,59.32L58.713,59.39z"/>
		
			<linearGradient id="SVGID_3_" gradientUnits="userSpaceOnUse" x1="-28.2358" y1="527.2603" x2="-58.7364" y2="557.7609" gradientTransform="matrix(1 0 0 1 84 -470.5264)">
			<stop  offset="0" style="stop-color:#FF3A44"/>
			<stop  offset="1" style="stop-color:#C31162"/>
		</linearGradient>
		<path fill="url(#SVGID_3_)" d="M58.84,59.319l-5.661-5.66L36.477,70.36c0.618,0.654,1.636,0.734,2.785,0.083L58.84,59.319"/>
		
			<linearGradient id="SVGID_4_" gradientUnits="userSpaceOnUse" x1="-51.729" y1="497.6157" x2="-38.1094" y2="511.2353" gradientTransform="matrix(1 0 0 1 84 -470.5264)">
			<stop  offset="0" style="stop-color:#32A071"/>
			<stop  offset="0.0685" style="stop-color:#2DA771"/>
			<stop  offset="0.4762" style="stop-color:#15CF74"/>
			<stop  offset="0.8009" style="stop-color:#06E775"/>
			<stop  offset="1" style="stop-color:#00F076"/>
		</linearGradient>
		<path fill="url(#SVGID_4_)" d="M58.84,47.997L39.261,36.872c-1.149-0.652-2.167-0.571-2.785,0.083l16.702,16.704L58.84,47.997z"/>
		<g>
			<path opacity="0.2" enable-background="new    " d="M58.715,59.194L39.261,70.249c-1.089,0.617-2.062,0.576-2.686,0.015l0,0
				l-0.099,0.1l0,0l0.099,0.097l0,0c0.625,0.563,1.597,0.604,2.686-0.016L58.84,59.319L58.715,59.194z"/>
			<path opacity="0.12" enable-background="new    " d="M36.477,70.167c-0.391-0.414-0.621-1.054-0.621-1.883v0.194
				c0,0.83,0.23,1.472,0.621,1.884l0.099-0.1L36.477,70.167z"/>
		</g>
		<path opacity="0.12" enable-background="new    " d="M65.397,55.397l-6.682,3.797l0.125,0.125l6.557-3.727
			c0.936-0.531,1.404-1.233,1.404-1.934l0,0C66.723,54.292,66.246,54.915,65.397,55.397z"/>
		<path opacity="0.25" fill="#FFFFFF" enable-background="new    " d="M39.261,37.068l26.136,14.85
			c0.849,0.483,1.326,1.104,1.404,1.741l0,0c0.001-0.701-0.467-1.404-1.404-1.936l-26.136-14.85
			c-1.874-1.064-3.406-0.18-3.406,1.965v0.195C35.855,36.889,37.387,36.004,39.261,37.068z"/>
	</g>
</g>
</svg>
